!!!OTL: Wangjian ritou jiu chutou
!!!ARE: Asia, China, Fujian Ninghua
!! II, 593, 2)
!!!SCT: C2015
!!!YEM: Copyright 1995, estate of Helmut Schaffrath.
**kern
*ICvox
*Ivox
*M2/4
*k[f#c#]
*D:
{8ff#
8ff#
8dd
8dd
=1
2ee}
=2
{8dd
8ff#
4ee
=3
8dd
16ee
16dd
4b}
=4
{8b
8ee
8ee
8dd
=5
8b
16dd
16b
4a}
=6
{8b
8dd
8ee
8ee
=7
8ee
8b
[4dd
=8
4dd]
4b
=9
4b
4r}
==
!!!AGN: Shange
!!!AMT: simple duple
!!!AIN: vox
!!!EED: Helmut Schaffrath
!!!EEV: 1.0
*-
!!!ONB: Tied note syntax fixed by Craig Sapp, 2004/05/03/
